packages/foundations/assets/icons/functional/images/logos/subway.svg

<svg xmlns="http://www.w3.org/2000/svg" width="32" height="32" fill="none"><path fill="#1A1C1F" fill-rule="evenodd" d="M7.013 2.079c-1.095.03-1.201.042-1.59.177a4.7 4.7 0 0 0-1.868 1.15c-.679.66-1.113 1.405-1.423 2.445l-.162.544.018 9.589c.017 8.682.027 9.625.107 9.963.261 1.109.594 1.742 1.308 2.49.68.712 1.347 1.099 2.475 1.438l.518.155 9.589-.018c10.567-.021 9.807.004 10.785-.354.621-.227 1.114-.539 1.639-1.036.734-.695 1.123-1.359 1.467-2.503l.156-.52-.022-9.586c-.016-7.134-.037-9.668-.085-9.906a5.07 5.07 0 0 0-2.632-3.52c-.761-.402-.99-.455-2.196-.509-1.162-.053-16.169-.051-18.084.001m18.938 2.095c.48.162.77.35 1.159.754.683.71.781.98.84 2.325.051 1.181.054 11.759.003 15.867l-.033 2.72-.203.415c-.23.469-.697 1.004-1.106 1.267a5 5 0 0 1-.651.322l-.387.152-9.013.001c-4.977 0-9.312-.022-9.68-.049-.775-.057-.998-.125-1.495-.456-.555-.369-.988-.939-1.234-1.625l-.124-.347.005-9.6.006-9.6.114-.28c.346-.854 1.01-1.536 1.795-1.844.412-.162 1.62-.181 11.066-.174l8.507.006zM9.188 13.507c.021 5.318.026 5.524.132 6.013.248 1.142.649 1.913 1.37 2.638.895.9 1.989 1.425 3.577 1.714.758.139 2.708.139 3.466 0 1.567-.286 2.677-.812 3.549-1.684.941-.941 1.383-2.008 1.492-3.601.028-.411.051-2.961.052-5.667L22.827 8h-4.054l-.001 4.653c0 2.56-.023 5.001-.051 5.425-.047.731-.06.793-.242 1.161-.241.489-.779 1.046-1.208 1.254-1.54.744-3.26.061-3.873-1.539l-.141-.367-.019-5.294L13.219 8H9.166z"/></svg>

<svg width="32" height="32" viewBox="0 0 32 32" fill="none" xmlns="http://www.w3.org/2000/svg"><path d="M7.013 2.079 C 5.918 2.109,5.812 2.121,5.423 2.256 C 4.659 2.523,4.130 2.849,3.555 3.406 C 2.876 4.066,2.442 4.811,2.132 5.851 L 1.970 6.395 1.988 15.984 C 2.005 24.666,2.015 25.609,2.095 25.947 C 2.356 27.056,2.689 27.689,3.403 28.437 C 4.083 29.149,4.750 29.536,5.878 29.875 L 6.396 30.030 15.985 30.012 C 26.552 29.991,25.792 30.016,26.770 29.658 C 27.391 29.431,27.884 29.119,28.409 28.622 C 29.143 27.927,29.532 27.263,29.876 26.119 L 30.032 25.599 30.010 16.013 C 29.994 8.879,29.973 6.345,29.925 6.107 C 29.624 4.589,28.673 3.317,27.293 2.587 C 26.532 2.185,26.303 2.132,25.097 2.078 C 23.935 2.025,8.928 2.027,7.013 2.079 M25.951 4.174 C 26.431 4.336,26.721 4.524,27.110 4.928 C 27.793 5.638,27.891 5.908,27.950 7.253 C 28.001 8.434,28.004 19.012,27.953 23.120 L 27.920 25.840 27.717 26.255 C 27.487 26.724,27.020 27.259,26.611 27.522 C 26.465 27.615,26.172 27.760,25.960 27.844 L 25.573 27.996 16.560 27.997 C 11.583 27.997,7.248 27.975,6.880 27.948 C 6.105 27.891,5.882 27.823,5.385 27.492 C 4.830 27.123,4.397 26.553,4.151 25.867 L 4.027 25.520 4.032 15.920 L 4.038 6.320 4.152 6.040 C 4.498 5.186,5.162 4.504,5.947 4.196 C 6.359 4.034,7.567 4.015,17.013 4.022 L 25.520 4.028 25.951 4.174 M9.188 13.507 C 9.209 18.825,9.214 19.031,9.320 19.520 C 9.568 20.662,9.969 21.433,10.690 22.158 C 11.585 23.058,12.679 23.583,14.267 23.872 C 15.025 24.011,16.975 24.011,17.733 23.872 C 19.300 23.586,20.410 23.060,21.282 22.188 C 22.223 21.247,22.665 20.180,22.774 18.587 C 22.802 18.176,22.825 15.626,22.826 12.920 L 22.827 8.000 20.800 8.000 L 18.773 8.000 18.772 12.653 C 18.772 15.213,18.749 17.654,18.721 18.078 C 18.674 18.809,18.661 18.871,18.479 19.239 C 18.238 19.728,17.700 20.285,17.271 20.493 C 15.731 21.237,14.011 20.554,13.398 18.954 L 13.257 18.587 13.238 13.293 L 13.219 8.000 11.192 8.000 L 9.166 8.000 9.188 13.507 " fill="#1A1C1F" stroke="none" fill-rule="evenodd"></path></svg>
